X: 072
M: C|
L: 1/8
K: Em
V: 1
e | gfge f^dBe | (A/B/c) BG FADf | gfge BecA | GBAc BEEe |
    gbge dcBe | AcBd | FdDF | GEAc | Befg | Befa gee |]
V: 2 clef=bass middle=d
z | e2e2 e2e2 | e2f2 d2d2 | e2e2 e2c2 | B2B2 E2E :|
z | e2e2 ^d2B2 | e2e2 d2d2 | e2e2 e2A2 | B2B2 E2E2 |
    e2e2 d2d2 | e2g2 d2d2 | e2^d2 e2f2 | b2B2 e2E |]


